X: 423
T: Od Yishoma #3
O: Trad
M: 2/4
L: 1/8
K: Gm
| "Gm"(GFG)A | "Gm"B2 B>B | "D7"(BA)Bc | "Gm"(BA) G2 | "Gm"(GFG)A | "Gm"B2 B>B |
w: Od** yi-sho-ma b'-a-*re y'-hu-*da u-**v'-chu-tzot Y'-
| "Gm"B(c/B/) GB | "Cm"c4 | "Cm"(Gc2) c | "Cm"c2 c2 | "(Gm)"(cd/c/ Bc) | "Gm"(dc) B2 |
w: ru-sha-*la-*yim. kol* sa-son v'-kol**** sim-*cha
| "Eb"(GB2) B | B2 "(Cm)"c2 | "Gm"B2 "D7"A2 | "Gm"G2 "(F7)"z2 || "Bb"(BF B)c | "Bb"d2 d>d | "Cm"c2 "F7"d>d | "Bb"c B3 |
w: kol* cha-tan v'-kol ka- la. Od** yi-sho-ma b'-a-re y'-hu-da
| "Bb"(BF B)c | "Bb"d2 d>d | "F7"cc (fe) | "Bb"d4 | "Bb"(BF Bc) | "(Gm)"d2 d>d |
w: u-**v'-chu-tzot Y'-ru-sha-la-*yim. kol*** sa-son v'-
| "Cm"(c2 d2) | "Gm"c B3 | "Cm"Bc cB | "D7"(dc) (BA) | "Gm"G4- | G2 z2 |]
w: kol* sim-cha kol cha-tan v'-kol* ka-*la.
